icons/amphora.svg

<svg width="24" height="24" viewBox="0 0 24 24" fill="none" xmlns="http://www.w3.org/2000/svg">
<path d="M9.01401 6C10.9511 6.64911 13.0453 6.64911 14.9824 6M17.9666 16.5143C19.0311 13.3039 22.885 4.43559 15.9771 5.01429M6.03341 16.5143C4.96891 13.3039 1.11501 4.43559 8.02287 5.01429M14.485 9C14.485 12.5 17.9666 13 17.9666 16C17.9666 18.6137 16.3351 22 13.4211 22C12.9391 22 12.446 22 11.9982 22C11.5382 22 11.0305 22 10.5361 22C7.47005 22 6.02982 18.6878 6.02982 16C6.02982 13 9.51138 12.5 9.51138 9C9.51138 7.85298 6.30471 2 8.51665 2H15.4798C17.6917 2 14.485 7.85298 14.485 9Z" stroke="black" stroke-width="2" stroke-linecap="round" stroke-linejoin="round"/>
</svg>

<svg xmlns="http://www.w3.org/2000/svg" width="24" height="24" viewBox="0 0 24 24" fill="none" stroke="currentColor" stroke-width="2" stroke-linecap="round" stroke-linejoin="round">
<path d="M9.014 6a9.4 9.4 0 0 0 5.968 0m2.985 10.514c1.064-3.21 4.918-12.078-1.99-11.5m-9.944 11.5c-1.064-3.21-4.918-12.078 1.99-11.5M14.485 9c0 3.5 3.482 4 3.482 7 0 2.614-1.632 6-4.546 6h-2.885C7.47 22 6.03 18.688 6.03 16c0-3 3.481-3.5 3.481-7 0-1.147-3.206-7-.994-7h6.963c2.212 0-.995 5.853-.995 7"/>
</svg>
